projects/plugins/jetpack/images/products/product-jetpack-scan.svg

<svg fill="none" height="128" viewBox="0 0 128 128" width="128" xmlns="http://www.w3.org/2000/svg" xmlns:xlink="http://www.w3.org/1999/xlink"><clipPath id="a"><path d="m0 0h128v128h-128z"/></clipPath><g clip-path="url(#a)"><rect fill="#2c3338" height="103.619" rx="12.1905" width="103.619" x="12.1904" y="12.1905"/><path clip-rule="evenodd" d="m65.2573 43.6826 18.2724 8.3056v12.3816c0 10.5546-6.7788 20.5479-16.3377 23.7005-1.2561.4143-2.6133.4143-3.8694 0-9.5589-3.1526-16.3377-13.1459-16.3377-23.7005v-12.3816zm-14.2119 10.9203v9.7669c0 8.9682 5.8069 17.2909 13.549 19.8443.4301.1418.8957.1418 1.3258 0 7.742-2.5534 13.549-10.8761 13.549-19.8443v-9.7669l-14.2119-6.46z" fill="#fff" fill-rule="evenodd"/></g></svg>

<svg width="128" height="128" viewBox="0 0 128 128" fill="none" xmlns="http://www.w3.org/2000/svg">
<g clip-path="url(#clip0_5171_60976)">
<rect x="12.1904" y="12.1905" width="103.619" height="103.619" rx="12.1905" fill="#2C3338"/>
<g style="mix-blend-mode:screen">
<path fill-rule="evenodd" clip-rule="evenodd" d="M65.2573 43.6826L83.5297 51.9882V64.3698C83.5297 74.9244 76.7509 84.9177 67.192 88.0703C65.9359 88.4846 64.5787 88.4846 63.3226 88.0703C53.7637 84.9177 46.9849 74.9244 46.9849 64.3698V51.9882L65.2573 43.6826ZM51.0454 54.6029V64.3698C51.0454 73.338 56.8523 81.6607 64.5944 84.2141C65.0245 84.3559 65.4901 84.3559 65.9202 84.2141C73.6622 81.6607 79.4692 73.338 79.4692 64.3698V54.6029L65.2573 48.1429L51.0454 54.6029Z" fill="white"/>
</g>
</g>
<defs>
<clipPath id="clip0_5171_60976">
<rect width="128" height="128" fill="white"/>
</clipPath>
</defs>
</svg>
